X:877
T:Bedford Polka
S:Tom Barrett
Z:Nigel Gatherer
M:2/4
L:1/8
R:polka
K:Gmaj
GA Bc | d2 dB | c2 cA | B2 BA |
GA Bc | d2 de | fd cA | AG G2 :|
g2 fe | d2 dB | c2 cA | B2 Bd |
g2 fe | d2 de | fd cA | AG G2 :|
<end>
<start>
